X:413
T: De Malbrough (131b), S. 299f
N: T0301
O: Luxemburg
S: Singendes Volk, Esch-Alzette 1937, posth.]
N: Junglinster, hhh Vater des Autors, 1890;
N: (131a)- Straen, fff Witry, 31.1.1933
R: historische, Kriegs- und Soldatenlieder]
M: 6/8
L: 1/16
K: G
B2 | B4B2B2A2B2 | c6B6 |
A2A2AAA2A2GA | B4A2G4
B2 | B4B2B2A2B2 | c6B4
d2 | B4G2A4A2 | G4z6
B2 | d4d2e4e2 | d4z6

@@@ Tune index: 8467
